X:1
T:Title
%%score 1 { 2 | 3 }
L:1/8
Q:1/4=100
M:4/4
K:G
V:1 treble nm="Tubular Bells, Soprano"
V:2 bass nm="Choir Pad, Easter Bells (Pettingell)"
V:3 bass 
V:1
 [Gd]2 [GB]>[Gc] [Gd]2 [DG]2 | [Ac]2 [GB]2 [FA]4 | [GB]>[Gc] [Gd]>[Ge] [Fd]2 [G^c]2 | [Fd]6 z2 | %4
w: By~George~Crawford~Hugg * * * *||||
 [Gd]2 [GB]>[Gc] [Gd]2 [DG]2 | [Ac]2 [GB]2 [FA]4 | [DG]>[FA] [GB]>[Gc] [GB]2 [FA]2 | G6 z2 | %8
w: ||||
 [GB]2 d<d' [GB]2 d<d' | [GB]2 [Fc]2 [Gd]2 z2 | [FA]2 d<d' [FA]2 d<d' | [GB]2 [G^c]2 [Fd]2 [A=c]2 | %12
w: ||||
 [GB]2 d<d' [GB]2 d<d' | [Gc]2 [Gd]2 [Ge][Gd][Gc][GB] | [FA]2 d<d' [=F^G]2 d<d' | %15
w: |||
 [FA]2 d<d' d<d' d<d' | [GB]2 d<d' [GB]2 d<d' | [GB]2 [Fc]2 [Gd]2 z2 | [GB]2 g<g' [Gc]2 g<g' | %19
w: ||||
 [G^c]2 g<g' [Gd]2 g<g' | [CF]2 [CA]2 [Dd][Dc][DB][DA] | [B,G]2 g<g' g4 |] %22
w: |||
V:2
 B,2 D>C B,2 B,2 | D2 D2 D4 | D>C B,>C A,2 E2 | D6 z2 | B,2 D>C B,2 B,2 | D2 D2 D4 | %6
 B,>D D>E D2 C2 | B,6 z2 | D2 z2 D2 z2 | D2 D2 D2 z2 | C2 z2 C2 z2 | D2 A,2 A,2 D2 | D2 z2 D2 z2 | %13
 C2 B,2 CDED | D2 z2 B,2 z2 | D2 z2 z4 | D2 z2 D2 z2 | D2 D2 D2 z2 | D2 z2 C2 z2 | %19
 _B,2 z2 =B,2 z2 | A,2 F,2 B,A,G,F, | G,2 z2 z4 |] %22
V:3
 G,2 G,>G, G,2 G,2 | F,2 G,2 D,4 | G,>G, G,>G, z2 A,,2 | D,6 z2 | G,2 G,>G, G,2 G,2 | F,2 G,2 D,4 | %6
 G,>D, G,>C, D,2 D,2 | G,6 z2 | G,2 z2 G,2 z2 | G,2 A,2 B,2 z2 | D,2 z2 D,2 z2 | G,2 z2 D,4 | %12
 G,2 z2 =F,2 z2 | E,2 D,2 C,B,,A,,G,, | D,2 z2 D,2 z2 | D,2 z2 z4 | G,2 z2 G,2 z2 | %17
 G,2 A,2 B,2 z2 | =F,2 z2 E,2 z2 | F,2 z2 D,2 z2 | D,2 D,2 D,D,D,D, | z8 |] %22

